X: 22
T:bunch of keys
M:4/4
L:1/8
Z:Bernhart,  28/1/1999
K:G
|DGGF G2GA|BGdG eGdG| D=FFE F2FG|A=FcF dFcF|
DGGF G2GA|BAGA Bcde|=fgfd cBAc|BGAG DG2GG:||
|dggf gfga| bgag bgag|d=cde fefg| afgf afge|
 dgfa gfga| bgag fdde|=fgfd cBAc|BGAE G2GA:||
BGG2 BGDG|BGG2 Bdgd|A=FF2 AFcF| A=FF2 ABcA
|BGG2 BGdG|BGGA Bcde|fage fdcA|GBAF DGG2:||

